X: 1
T: CARNIVAL -- HORNPIPE
B: Ryan's Mammoth Collection of Fiddle Tunes
R: hornpipe
M: C|
L: 1/8
Z: Contributed 20000522201620 by John Chambers jchambers:casc.com
K: A
ve>ud \
| c>Ac>f e2e>d | c>Ac>f e2e>f | e>dB>f e>dB>f | e>gb>a g>fe>d |
| c>Ac>f e2e>d | c>Ac>f e2((3efg) | a>cd>^d e>EF>G | A2c2A2 H[|]:|
|: (uGA) \
| B>BB>B B>g^^f>g | B>BB>B B>g^^f>g | a>gf>e ^d>cB>A | G>B A>c B2(GA) \
| B>BB>B B>g^^f>g | B>BB>B B>g^^f>g | a>gf>e ^d>Bc>d | e2[e2G2][e2G2] :|
